X: 474
T: Ba cong
%%abc-version 2.0
%%abcx-abcm2ps-target-version 5.9.1 (29 Sep 2008)
%%abc-creator hum2abc beta
%%abcx-conversion-date 2013/10/02 07:52:30
%%abc-edited-by Helmut Schaffrath
%%humdrum-veritas 3000479765
%%humdrum-veritas-data 2403357737
%%continueall 1
%%barnumbers 0
L: 1/8
M: 2/4
K: Bb
f' g' f' d' [I:setbarnb 1]| 
c'3b | 
c'2z2 | 
f'2d' c' | 
b3g | 
b4 | 
g bc'2 | 
f' g' f' d' | 
c'2f'2 | 
f' d' c' b | 
bf2b | 
d' c' b g | 
f3e | 
f2z2 | 
b c' f' g' | 
f'2c' b | 
bf2b | 
d' c' b f | 
f3e | 
f2z2 |]  



